X:28
T:Eight Maids of Moidart,The. JBi.28
M:C|
L:1/8
Q:1/4=120
S:James Biggins MS, Leeds, 1779.
R:.Reel
O:England
A:Yorkshire
Z:vmp.Nick Barber & Chris Partington..
K:F
g|a/g/f/e/ fcA2 Fc|(A/B/c) Fc AGGg|!
a/g/f/e/ fcA2 Fc|(A/B/c) Fc AF F:|!
|:c|AFcF dFcF|AFcF (d/c/B/A/) Gc|!
AFcF dFcF|(A/B/c) Gc AF F:|

